!!! OTL: Berkowitz468
!!! Chapter: 1
!!! Section: IV
!!! Page: 116
!!! Mode: 
!!! Encoder: DJB
**kern
*staff1
*I"Piano
=1-
*clefF4
*k[b-e-a-d-]
*f:
*M4/4
4F\
4C/
4.c\
8A-\
=2
4G\
4A-\
4F\
4r
=3
4G-\
4D-\
4.d-\
8B-\
=4
4A-\
4B-\
4G-\
4r
=5
4F\
4En\
4.c\
8e-\
=6
4E-\
4Dn\
2B-\
=7
4D-\
4C/
4.A-\
8F\
=8
4G\
4c\
4F\
4r
==
*-
